icons/16/bell.svg

<svg width="16" height="16" viewBox="0 0 16 16" xmlns="http://www.w3.org/2000/svg">
  <path fill-rule="evenodd" clip-rule="evenodd" d="M8 1.5C7.07174 1.5 6.1815 1.86875 5.52513 2.52513C4.86875 3.1815 4.5 4.07174 4.5 5V7.342C4.5 8.082 4.28 8.806 3.87 9.422L2.503 11.472C2.50104 11.475 2.49999 11.4784 2.5 11.482L2.501 11.489C2.501 11.491 2.503 11.493 2.505 11.495C2.50669 11.4967 2.50874 11.4981 2.511 11.499L2.518 11.5H13.482L13.489 11.499C13.4913 11.4981 13.4933 11.4968 13.495 11.495C13.4968 11.4933 13.4981 11.4913 13.499 11.489L13.5 11.482C13.5001 11.4784 13.499 11.4749 13.497 11.472L12.13 9.422C11.7193 8.80605 11.5001 8.08232 11.5 7.342V5C11.5 4.07174 11.1313 3.1815 10.4749 2.52513C9.8185 1.86875 8.92826 1.5 8 1.5ZM3 5C3 3.67392 3.52679 2.40215 4.46447 1.46447C5.40215 0.526784 6.67392 0 8 0C9.32608 0 10.5979 0.526784 11.5355 1.46447C12.4732 2.40215 13 3.67392 13 5V7.342C13 7.786 13.132 8.22 13.378 8.59L14.745 10.64C14.8974 10.8686 14.9849 11.1343 14.9982 11.4087C15.0114 11.6831 14.95 11.956 14.8203 12.1983C14.6907 12.4405 14.4977 12.643 14.262 12.7842C14.0263 12.9254 13.7567 13 13.482 13H2.518C2.24325 13 1.97366 12.9254 1.73797 12.7842C1.50228 12.643 1.30933 12.4405 1.17969 12.1983C1.05005 11.956 0.988583 11.6831 1.00185 11.4087C1.01511 11.1343 1.1026 10.8686 1.255 10.64L2.622 8.59C2.86843 8.22043 2.99995 7.78619 3 7.342V5Z"/>
  <path d="M8.00001 16C8.48726 16.0002 8.95782 15.8225 9.32331 15.5002C9.68881 15.178 9.9241 14.7334 9.98501 14.25C10.002 14.113 9.88801 14 9.75001 14H6.25001C6.11201 14 5.99801 14.113 6.01501 14.25C6.07591 14.7334 6.31121 15.178 6.6767 15.5002C7.0422 15.8225 7.51275 16.0002 8.00001 16Z"/>
</svg>

<svg width="16" height="16" viewBox="0 0 16 16" xmlns="http://www.w3.org/2000/svg">
  <path fill-rule="evenodd" clip-rule="evenodd" d="M8 1.5A3.5 3.5 0 004.5 5v2.342c0 .74-.22 1.464-.63 2.08l-1.367 2.05a.018.018 0 00-.003.01l.001.007c0 .002.002.004.004.006a.017.017 0 00.006.004l.007.001h10.964l.007-.001a.016.016 0 00.006-.004.016.016 0 00.004-.006l.001-.007a.017.017 0 00-.003-.01l-1.367-2.05a3.75 3.75 0 01-.63-2.08V5A3.5 3.5 0 008 1.5zM3 5a5 5 0 0110 0v2.342c0 .444.132.878.378 1.248l1.367 2.05A1.518 1.518 0 0113.482 13H2.518a1.518 1.518 0 01-1.263-2.36l1.367-2.05A2.25 2.25 0 003 7.342V5z"/>
  <path d="M8 16a2 2 0 001.985-1.75c.017-.137-.097-.25-.235-.25h-3.5c-.138 0-.252.113-.235.25A2 2 0 008 16z"/>
</svg>
